X:17
T:Parley, or Church Call
S:Ashworth's Instructor, p. 34
M:2/4
%%MIDI program 72
%%MIDI transpose 8
L:1/16
K:G
d2(ed) c2B2|AGAB GABc|d2(ed) c2B2|AGAB G4::d2ef g2g2|agfe dcBA|
d2ef g2g2|agfe d4:|d2(ed) c2B2|AGAB GABc|d2(ed) c2B2|AGAB G4|]

